X:125
T:Shipabout. HSJJ.127
T:Joke,The,aka. HSJJ.127
M:6/8
L:1/8
Q:3/8=120
S:HSJ Jackson,Wyresdale,Lancs.1823
R:.Jig
O:England
A:Lancashire
H:1823
Z:vmp.Chris Partington.
K:C
“_D in MS”C2c cBc|D2d dcd|E2e ede|F2f fef|!
ggg gec|aaa afd|Bcd GAB|c3C3:|!
|:c2c’ c’bc’|”_d in MS”B2b bab|A2a aga|G2g gfg|!
F2f fef|E2e ede|dfe dcB|c3c3:|

